public/assets/vectors/npm.svg

<?xml version="1.0" encoding="UTF-8" standalone="no"?>
<svg
   xmlns:dc="http://purl.org/dc/elements/1.1/"
   xmlns:cc="http://creativecommons.org/ns#"
   xmlns:rdf="http://www.w3.org/1999/02/22-rdf-syntax-ns#"
   xmlns:svg="http://www.w3.org/2000/svg"
   xmlns="http://www.w3.org/2000/svg"
   xmlns:sodipodi="http://sodipodi.sourceforge.net/DTD/sodipodi-0.dtd"
   xmlns:inkscape="http://www.inkscape.org/namespaces/inkscape"
   width="100pt"
   height="100pt"
   viewBox="0 0 100 100"
   version="1.1"
   id="svg7"
   sodipodi:docname="npm.svg"
   inkscape:version="0.92.4 (5da689c313, 2019-01-14)">
  <metadata
     id="metadata13">
    <rdf:RDF>
      <cc:Work
         rdf:about="">
        <dc:format>image/svg+xml</dc:format>
        <dc:type
           rdf:resource="http://purl.org/dc/dcmitype/StillImage" />
        <dc:title></dc:title>
      </cc:Work>
    </rdf:RDF>
  </metadata>
  <defs
     id="defs11" />
  <sodipodi:namedview
     pagecolor="#ffffff"
     bordercolor="#666666"
     borderopacity="1"
     objecttolerance="10"
     gridtolerance="10"
     guidetolerance="10"
     inkscape:pageopacity="0"
     inkscape:pageshadow="2"
     inkscape:window-width="1600"
     inkscape:window-height="877"
     id="namedview9"
     showgrid="false"
     inkscape:document-units="pt"
     inkscape:zoom="2.2125"
     inkscape:cx="53.333333"
     inkscape:cy="53.333333"
     inkscape:window-x="-8"
     inkscape:window-y="90"
     inkscape:window-maximized="1"
     inkscape:current-layer="svg7" />
  <g
     id="surface176933"
     transform="translate(10.000002,11.333985)">
    <path
       style="fill:#d40000;fill-opacity:1;fill-rule:nonzero;stroke:none"
       d="M 0,25 H 80 V 53.332031 H 40 v 5 H 21.667969 v -5 H 0 Z m 0,0"
       id="path2"
       inkscape:connector-curvature="0" />
    <path
       style="fill:#ffffff;fill-opacity:1;fill-rule:nonzero;stroke:none"
       d="m 5,48.332031 h 8.332031 V 35 h 5 v 13.332031 h 3.335938 V 30 H 5 Z M 26.667969,30 V 53.332031 H 35 v -5 h 8.332031 V 30 Z M 40,43.332031 H 35 V 35 h 5 z M 48.332031,30 v 18.332031 h 8.335938 V 35 h 5 v 13.332031 h 5 V 35 h 5 V 48.332031 H 75 V 30 Z m 0,0"
       id="path4"
       inkscape:connector-curvature="0" />
  </g>
</svg>

<?xml version="1.0" encoding="UTF-8"?>
<svg xmlns="http://www.w3.org/2000/svg" xmlns:xlink="http://www.w3.org/1999/xlink" width="80pt" height="80pt" viewBox="0 0 80 80" version="1.1">
<g id="surface176933">
<path style=" stroke:none;fill-rule:nonzero;fill:rgb(83.529412%,0%,0%);fill-opacity:1;" d="M 0 25 L 80 25 L 80 53.332031 L 40 53.332031 L 40 58.332031 L 21.667969 58.332031 L 21.667969 53.332031 L 0 53.332031 Z M 0 25 "/>
<path style=" stroke:none;fill-rule:nonzero;fill:rgb(100%,100%,100%);fill-opacity:1;" d="M 5 48.332031 L 13.332031 48.332031 L 13.332031 35 L 18.332031 35 L 18.332031 48.332031 L 21.667969 48.332031 L 21.667969 30 L 5 30 Z M 26.667969 30 L 26.667969 53.332031 L 35 53.332031 L 35 48.332031 L 43.332031 48.332031 L 43.332031 30 Z M 40 43.332031 L 35 43.332031 L 35 35 L 40 35 Z M 48.332031 30 L 48.332031 48.332031 L 56.667969 48.332031 L 56.667969 35 L 61.667969 35 L 61.667969 48.332031 L 66.667969 48.332031 L 66.667969 35 L 71.667969 35 L 71.667969 48.332031 L 75 48.332031 L 75 30 Z M 48.332031 30 "/>
</g>
</svg>
